src/24/actions/distribute-horizontal-page.svg

<svg xmlns="http://www.w3.org/2000/svg" viewBox="0 0 24 24"><path d="M4 4v16h12l1.334-1L19 17.75l1-.75V4H4zm1 1h14v12h-3v2H5V5zm1 3v8h5V8H6zm7 0v8h5V8h-5zM7 9h3v6H7V9zm7 0h3v6h-3V9z" fill="currentColor" color="#5d656b"/></svg>

<svg xmlns="http://www.w3.org/2000/svg" viewBox="0 0 24 24">
  <defs id="defs3051">
    <style type="text/css" id="current-color-scheme">
      .ColorScheme-Text {
        color:#5d656b;
      }
      </style>
  </defs>
 <path style="fill:currentColor;fill-opacity:1;stroke:none" 
     d="M 4 4 L 4 5 L 4 20 L 5 20 L 16 20 L 17.333984 19 L 19 17.75 L 20 17 L 20 5 L 20 4 L 4 4 z M 5 5 L 19 5 L 19 17 L 16 17 L 16 19 L 5 19 L 5 5 z M 6 8 L 6 16 L 11 16 L 11 8 L 6 8 z M 13 8 L 13 16 L 18 16 L 18 8 L 13 8 z M 7 9 L 10 9 L 10 15 L 7 15 L 7 9 z M 14 9 L 17 9 L 17 15 L 14 15 L 14 9 z "
     class="ColorScheme-Text"
     />
</svg>
